assets/wikidata/mono.svg

<svg viewBox="0 0 24 24" xmlns="http://www.w3.org/2000/svg"><path d="m0 4.583v14.833h.865v-14.833zm1.788 0v14.833h2.653v-14.833zm3.518 0v14.832h2.654v-14.832zm3.547 0v14.834h.866v-14.834zm1.789 0v14.833h.865v-14.833zm1.759 0v14.834h2.653v-14.834zm3.518 0v14.834h.923v-14.834zm1.788 0v14.833h2.653v-14.833zm3.64 0v14.834h.865v-14.834zm1.788 0v14.834h.865v-14.834z"/></svg>

<svg xmlns="http://www.w3.org/2000/svg" viewBox="0 0 24 24"><path d="M0 4.583v14.833h.865V4.583zm1.788 0v14.833h2.653V4.583zm3.518 0v14.832H7.96V4.583zm3.547 0v14.834h.866V4.583zm1.789 0v14.833h.865V4.583zm1.759 0v14.834h2.653V4.583zm3.518 0v14.834h.923V4.583zm1.788 0v14.833h2.653V4.583zm3.64 0v14.834h.865V4.583zm1.788 0v14.834H24V4.583z"/></svg>
